icons/apparel/glasses.svg

<svg xmlns="http://www.w3.org/2000/svg" xmlns:ffdec="https://www.free-decompiler.com/flash" ffdec:objectType="shape" width="55.25" height="25.35"><path d="m46.45 10.85-.3-.8V9.9q0-2.15-3.3-3.8-2.4-1.15-5.25-1.6L21.95 2.05l-6.9-.9-6.95.25q-3.2.7-5.3 4.15Q1.15 8.35.55 12.2v1q-.05.35-.25.1l.25.35q1.25 1.45 2.55 1.9 3.3 1.3 8.35-.4l3.9-1.35q2.15-1 3.4-2.25l1.5-1.3q.95-.4 1.55.6l2.15 3.8q1.25 2.05 2.95 3.15 3.6 2.3 7.9 3.15 9.75 2.05 11.45-4.9l.15-.1q2.75 2.15 4.75 4.55 2.95 3.2 2.7 3.6l.65-1.35q.4-.7.6-.15-3.25-9.9-8.65-11.75M.1 13.45q-.3-1.3.2-3.35Q2.6.5 9.35.05L18.4.4l8.95 1.35L36.4 3.2q5.25.8 7.6 2.75 2.15 1.7 2.5 3.85 2.7 1 4.85 4.05 1.45 2.05 3 5.7.9 2.15.9 2.95 0 .9-1.05 2.8-.05.15-.2-.1-2.15-3.25-5.05-6l-1.3-1.35-1.15-.05q-2.25 6.65-12.15 4.15-6.25-1.5-9.2-4.6-1.35-1.45-2.05-2.7-.75-1.9-1.3-2.6-.95-1.2-2.3.2-2.45 2.55-7.75 4.1l-4.2.95q-2.55.25-4.25-.6-2.35-1.15-3-2.65l-.15-.5zm17-4.5q1.9-3.1-1.7-4.4-5.05-1.9-7.35-.85-1.9.9-2.9 3-.9 1.9-.95 4.2-.1 4.05 3.8 3.5 2.25-.4 4.8-1.55 2.85-1.55 4.3-3.9m-3.15-6.1q3.2 1.1 4.2 3.45.9 2.15-1.1 4.6-1.5 1.8-3.95 3.1-3.45 1.6-5.8 1.55-3.3-.1-3.55-3.6-.2-3.15.7-5.7 1.2-3.4 3.85-3.85 2.75-.5 5.65.45"/><path d="M46.45 10.85q5.4 1.85 8.65 11.75-.2-.55-.6.15l-.65 1.35q.25-.4-2.7-3.6-2-2.4-4.75-4.55l-.15.1q-1.7 6.95-11.45 4.9-4.3-.85-7.9-3.15-1.7-1.1-2.95-3.15l-2.15-3.8q-.6-1-1.55-.6l-1.5 1.3q-1.25 1.25-3.4 2.25l-3.9 1.35q-5.05 1.7-8.35.4-1.3-.45-2.55-1.9L.3 13.3q.2.25.25-.1v-1q.6-3.85 2.25-6.65Q4.9 2.1 8.1 1.4l6.95-.25 6.9.9L37.6 4.5q2.85.45 5.25 1.6 3.3 1.65 3.3 3.8v.15zM.1 13.45l.05.1-.05-.05zM36.4 6.2q-.95-.5-2.9-.85-5.4-.85-7.4 1.15-1.75 1.8-.8 4.75.85 2.6 3.4 5 2.5 2.35 5.05 2.95 2.85.7 4.25-1.35 1.25-2.3 1.45-4.75.25-2.8-.9-4.8-.85-1.4-2.15-2.1M13.95 2.85q-2.9-.95-5.65-.45-2.65.45-3.85 3.85-.9 2.55-.7 5.7.25 3.5 3.55 3.6 2.35.05 5.8-1.55 2.45-1.3 3.95-3.1 2-2.45 1.1-4.6-1-2.35-4.2-3.45"/><path d="M38.4 9.05Q37.65 7.3 36.15 7l-5.2-.8q-3.45-.05-4.75 1.75-1.1 1.55-.05 3.9 1 2.15 3.25 4.05 2.3 1.85 4.5 2.25 2.45.4 3.7-1.4 1.3-2.4 1.35-4.6.1-1.65-.55-3.1m-2-2.85q1.3.7 2.15 2.1 1.15 2 .9 4.8-.2 2.45-1.45 4.75-1.4 2.05-4.25 1.35-2.55-.6-5.05-2.95-2.55-2.4-3.4-5-.95-2.95.8-4.75 2-2 7.4-1.15 1.95.35 2.9.85"/></svg>

<?xml version="1.0" encoding="UTF-8" standalone="no"?>
<svg
   ffdec:objectType="shape"
   height="25.35px"
   width="55.25px"
   version="1.1"
   id="svg4"
   sodipodi:docname="glasses.svg"
   inkscape:version="1.3.2 (091e20e, 2023-11-25)"
   xmlns:inkscape="http://www.inkscape.org/namespaces/inkscape"
   xmlns:sodipodi="http://sodipodi.sourceforge.net/DTD/sodipodi-0.dtd"
   xmlns="http://www.w3.org/2000/svg"
   xmlns:svg="http://www.w3.org/2000/svg"
   xmlns:ffdec="https://www.free-decompiler.com/flash">
  <g transform="matrix(1.0, 0.0, 0.0, 1.0, 0.0, 0.0)">
    <path d="M46.45 10.85 L46.15 10.05 46.15 9.9 Q46.15 7.75 42.85 6.1 40.45 4.95 37.6 4.5 L21.95 2.05 15.05 1.15 8.1 1.4 Q4.9 2.1 2.8 5.55 1.15 8.35 0.55 12.2 L0.55 13.2 Q0.5 13.55 0.3 13.3 L0.55 13.65 Q1.8 15.1 3.1 15.55 6.4 16.85 11.45 15.15 L15.35 13.8 Q17.5 12.8 18.75 11.55 L20.25 10.25 Q21.2 9.85 21.8 10.85 L23.95 14.65 Q25.2 16.7 26.9 17.8 30.5 20.1 34.8 20.95 44.55 23.0 46.25 16.05 L46.4 15.95 Q49.15 18.1 51.15 20.5 54.1 23.7 53.85 24.1 L54.5 22.75 Q54.9 22.05 55.1 22.6 51.85 12.7 46.45 10.85 M0.1 13.45 Q-0.2 12.15 0.3 10.1 2.6 0.5 9.35 0.05 L18.4 0.4 27.35 1.75 36.4 3.2 Q41.65 4.0 44.0 5.95 46.15 7.65 46.5 9.8 49.2 10.8 51.35 13.85 52.8 15.9 54.35 19.55 55.25 21.7 55.25 22.5 55.25 23.4 54.2 25.3 54.15 25.45 54.0 25.2 51.85 21.95 48.95 19.2 L47.65 17.85 46.5 17.8 Q44.25 24.45 34.35 21.95 28.1 20.45 25.15 17.35 23.8 15.9 23.1 14.65 22.35 12.75 21.8 12.05 20.85 10.85 19.5 12.25 17.05 14.8 11.75 16.35 L7.55 17.3 Q5.0 17.55 3.3 16.7 0.95 15.55 0.3 14.05 L0.15 13.55 0.1 13.45 M17.1 8.95 Q19.0 5.85 15.4 4.55 10.35 2.65 8.05 3.7 6.15 4.6 5.15 6.7 4.25 8.6 4.2 10.9 4.1 14.95 8.0 14.4 10.25 14.0 12.8 12.85 15.65 11.3 17.1 8.95 M13.95 2.85 Q17.15 3.95 18.15 6.3 19.05 8.45 17.05 10.9 15.55 12.7 13.1 14.0 9.65 15.6 7.3 15.55 4.0 15.45 3.75 11.95 3.55 8.8 4.45 6.25 5.65 2.85 8.3 2.4 11.05 1.9 13.95 2.85" />
    <path d="M46.45 10.85 Q51.85 12.7 55.1 22.6 54.9 22.05 54.5 22.75 L53.85 24.1 Q54.1 23.7 51.15 20.5 49.15 18.1 46.4 15.95 L46.25 16.05 Q44.55 23.0 34.8 20.95 30.5 20.1 26.9 17.8 25.2 16.7 23.95 14.65 L21.8 10.85 Q21.2 9.85 20.25 10.25 L18.75 11.55 Q17.5 12.8 15.35 13.8 L11.45 15.15 Q6.4 16.85 3.1 15.55 1.8 15.1 0.55 13.65 L0.3 13.3 Q0.5 13.55 0.55 13.2 L0.55 12.2 Q1.15 8.35 2.8 5.55 4.9 2.1 8.1 1.4 L15.05 1.15 21.95 2.05 37.6 4.5 Q40.45 4.95 42.85 6.1 46.15 7.75 46.15 9.9 L46.15 10.05 46.45 10.85 M0.1 13.45 L0.15 13.55 0.1 13.5 0.1 13.45 M36.4 6.2 Q35.45 5.7 33.5 5.35 28.1 4.5 26.1 6.5 24.35 8.3 25.3 11.25 26.15 13.85 28.7 16.25 31.2 18.6 33.75 19.2 36.6 19.9 38.0 17.85 39.25 15.55 39.45 13.1 39.7 10.3 38.55 8.3 37.7 6.9 36.4 6.2 M13.95 2.85 Q11.05 1.9 8.3 2.4 5.65 2.85 4.45 6.25 3.55 8.8 3.75 11.95 4.0 15.45 7.3 15.55 9.65 15.6 13.1 14.0 15.55 12.7 17.05 10.9 19.05 8.45 18.15 6.3 17.15 3.95 13.95 2.85" />
    <path d="M38.4 9.05 Q37.65 7.3 36.15 7.0 L30.95 6.2 Q27.5 6.15 26.2 7.95 25.1 9.5 26.15 11.85 27.15 14.0 29.4 15.9 31.7 17.75 33.9 18.15 36.35 18.55 37.6 16.75 38.9 14.35 38.95 12.15 39.05 10.5 38.4 9.05 M36.4 6.2 Q37.7 6.9 38.55 8.3 39.7 10.3 39.45 13.1 39.25 15.55 38.0 17.85 36.6 19.9 33.75 19.2 31.2 18.6 28.7 16.25 26.15 13.85 25.3 11.25 24.35 8.3 26.1 6.5 28.1 4.5 33.5 5.35 35.45 5.7 36.4 6.2" />
  </g>
</svg>
